svg/Filled/arrow-back-circle_filled.svg

<svg viewBox="0 0 24 24" xmlns="http://www.w3.org/2000/svg" width="24" height="24"><path fill-rule="evenodd" d="M12 23a11 11 0 1 1 0-22 11 11 0 0 1 0 22m-.99-6.1a1 1 0 0 0 1.41-1.41l-.07-.08-2.41-2.4h5.98l.1-.01a1 1 0 0 0 0-1.99h-6.1l2.43-2.44a1 1 0 0 0-1.41-1.41l-3 3q-.3.27-.51.53-.18.2-.32.48l-.08.2a2 2 0 0 0 0 1.24l.08.2q.14.29.32.49l.5.53 3 3z" clip-rule="evenodd"/></svg>

<svg viewBox="0 0 24 24" xmlns="http://www.w3.org/2000/svg" width="24" height="24"><path fill-rule="evenodd" d="M12 23a11 11 0 1 1 0-22 11 11 0 0 1 0 22M11.01 16.9A1 1 0 0 0 12.42 15.49L9.94 13.01L16.02 13A1 1 0 0 0 16.02 11.01L9.92 11.01L12.35 8.57A1 1 0 0 0 10.94 7.16L7.94 10.16Q7.64 10.43 7.43 10.69Q7.25 10.89 7.11 11.17L7.03 11.37A2 2 0 0 0 7.03 12.61L7.11 12.81Q7.25 13.1 7.43 13.3L10.93 16.83Z" clip-rule="evenodd"/></svg>
